icon-svg/blind-tilt-closed.svg

<?xml version="1.0" encoding="UTF-8"?>
<svg width="24px" fill="#44739e" height="24px" viewBox="0 0 24 24" version="1.1" xmlns="http://www.w3.org/2000/svg" xmlns:xlink="http://www.w3.org/1999/xlink">
            <path d="m 3.3,21.299999 h 17.25 v 0.5 H 3.3 Z M 17.049999,21.08 h 0.18 v 0.22 h -0.18 z M 6.79,21.08 h 0.2 v 0.22 h -0.2 z m 10.259999,-1.41 h 0.18 v 0.22 h -0.18 z M 6.79,19.67 h 0.2 v 0.22 h -0.2 z m 10.259999,-1.41 h 0.18 v 0.22 h -0.18 z M 6.79,18.26 h 0.2 v 0.22 h -0.2 z m 10.259999,-1.42 h 0.18 v 0.22 h -0.18 z M 6.79,16.84 h 0.2 v 0.22 h -0.2 z m 10.259999,-1.41 h 0.18 v 0.22 h -0.18 z M 6.79,15.43 h 0.2 v 0.22 h -0.2 z m 10.259999,-1.41 h 0.18 v 0.22 h -0.18 z M 6.79,14.02 h 0.2 v 0.22 H 6.79 Z M 17.049999,12.6 h 0.18 v 0.22 h -0.18 z M 6.79,12.6 h 0.2 v 0.22 h -0.2 z m 10.259999,-1.41 h 0.18 v 0.22 h -0.18 z M 6.79,11.19 h 0.2 v 0.22 H 6.79 Z M 17.049999,9.7799997 h 0.18 v 0.22 h -0.18 z m -10.259999,0 h 0.2 v 0.22 H 6.79 Z M 17.049999,8.3699999 h 0.18 v 0.22 h -0.18 z m -10.259999,0 h 0.2 v 0.22 H 6.79 Z M 17.049999,6.9499998 h 0.18 v 0.22 h -0.18 z m -10.259999,0 h 0.2 v 0.22 H 6.79 Z M 17.049999,5.54 h 0.18 v 0.22 h -0.18 z M 6.79,5.54 h 0.2 V 5.76 H 6.79 Z M 17.049999,3.9400001 h 0.18 V 4.36 h -0.18 z m -10.259999,0 h 0.2 V 4.36 H 6.79 Z M 2.74,2.3 H 21.119999 V 3.9399999 H 2.74 Z m 14.49,17.589999 h 3.319999 v 1.19 H 17.23 Z m -10.2400002,0 H 17.05 v 1.19 H 6.9899998 Z m -3.6899998,0 h 3.48 v 1.19 H 3.3 Z M 17.23,18.48 h 3.319999 v 1.19 H 17.23 Z m -10.2400002,0 H 17.05 v 1.19 H 6.9899998 Z M 3.3,18.48 h 3.48 v 1.19 H 3.3 Z m 13.93,-1.41 h 3.319999 v 1.19 H 17.23 Z m -10.2400002,0 H 17.05 v 1.19 H 6.9899998 Z M 3.3,17.07 h 3.48 v 1.19 H 3.3 Z m 13.93,-1.42 h 3.319999 v 1.19 H 17.23 Z m -10.2400002,0 H 17.05 v 1.19 H 6.9899998 Z M 3.3,15.65 h 3.48 v 1.19 H 3.3 Z m 13.93,-1.41 h 3.319999 v 1.19 H 17.23 Z m -10.2400002,0 H 17.05 v 1.19 H 6.9899998 Z M 3.3,14.24 h 3.48 v 1.19 H 3.3 Z m 13.93,-1.41 h 3.319999 v 1.19 H 17.23 Z m -10.2400002,0 H 17.05 v 1.19 H 6.9899998 Z M 3.3,12.83 h 3.48 v 1.19 H 3.3 Z m 13.93,-1.41 h 3.319999 v 1.19 H 17.23 Z m -10.2400002,0 H 17.05 v 1.19 H 6.9899998 Z M 3.3,11.42 h 3.48 v 1.19 H 3.3 Z M 17.23,10 h 3.319999 v 1.19 H 17.23 Z M 6.9899998,10 H 17.05 v 1.19 H 6.9899998 Z M 3.3,10 h 3.48 v 1.19 H 3.3 Z M 17.23,8.5900002 h 3.319999 v 1.19 H 17.23 Z m -10.2400002,0 H 17.05 v 1.19 H 6.9899998 Z m -3.6899998,0 h 3.48 v 1.19 H 3.3 Z M 17.23,7.1799998 h 3.319999 V 8.3699999 H 17.23 Z m -10.2400002,0 H 17.05 V 8.3699999 H 6.9899998 Z m -3.6899998,0 H 6.78 V 8.3699999 H 3.3 Z M 17.23,5.7600002 h 3.319999 V 6.9500003 H 17.23 Z m -10.2400002,0 H 17.05 V 6.9500003 H 6.9899998 Z m -3.6899998,0 H 6.78 V 6.9500003 H 3.3 Z M 17.23,4.3499999 h 3.319999 V 5.54 H 17.23 Z m -10.2400002,0 H 17.05 V 5.54 H 6.9899998 Z m -3.6899998,0 H 6.78 V 5.54 H 3.3 Z"/>

</svg>

<svg xmlns="http://www.w3.org/2000/svg" fill="#44739e" viewBox="0 0 24 24"><path d="M3.3 21.3h17.25v.5H3.3Zm13.75-.22h.18v.22h-.18zm-10.26 0h.2v.22h-.2zm10.26-1.41h.18v.22h-.18zm-10.26 0h.2v.22h-.2zm10.26-1.41h.18v.22h-.18zm-10.26 0h.2v.22h-.2zm10.26-1.42h.18v.22h-.18zm-10.26 0h.2v.22h-.2zm10.26-1.41h.18v.22h-.18zm-10.26 0h.2v.22h-.2zm10.26-1.41h.18v.22h-.18zm-10.26 0h.2v.22h-.2Zm10.26-1.42h.18v.22h-.18zm-10.26 0h.2v.22h-.2zm10.26-1.41h.18v.22h-.18zm-10.26 0h.2v.22h-.2Zm10.26-1.41h.18V10h-.18zm-10.26 0h.2V10h-.2Zm10.26-1.41h.18v.22h-.18zm-10.26 0h.2v.22h-.2Zm10.26-1.42h.18v.22h-.18zm-10.26 0h.2v.22h-.2Zm10.26-1.41h.18v.22h-.18zm-10.26 0h.2v.22h-.2Zm10.26-1.6h.18v.42h-.18zm-10.26 0h.2v.42h-.2ZM2.74 2.3h18.38v1.64H2.74Zm14.49 17.59h3.32v1.19h-3.32Zm-10.24 0h10.06v1.19H6.99Zm-3.69 0h3.48v1.19H3.3Zm13.93-1.41h3.32v1.19h-3.32Zm-10.24 0h10.06v1.19H6.99Zm-3.69 0h3.48v1.19H3.3Zm13.93-1.41h3.32v1.19h-3.32Zm-10.24 0h10.06v1.19H6.99Zm-3.69 0h3.48v1.19H3.3Zm13.93-1.42h3.32v1.19h-3.32Zm-10.24 0h10.06v1.19H6.99Zm-3.69 0h3.48v1.19H3.3Zm13.93-1.41h3.32v1.19h-3.32Zm-10.24 0h10.06v1.19H6.99Zm-3.69 0h3.48v1.19H3.3Zm13.93-1.41h3.32v1.19h-3.32Zm-10.24 0h10.06v1.19H6.99Zm-3.69 0h3.48v1.19H3.3Zm13.93-1.41h3.32v1.19h-3.32Zm-10.24 0h10.06v1.19H6.99Zm-3.69 0h3.48v1.19H3.3ZM17.23 10h3.32v1.19h-3.32ZM6.99 10h10.06v1.19H6.99ZM3.3 10h3.48v1.19H3.3Zm13.93-1.41h3.32v1.19h-3.32Zm-10.24 0h10.06v1.19H6.99Zm-3.69 0h3.48v1.19H3.3Zm13.93-1.41h3.32v1.19h-3.32Zm-10.24 0h10.06v1.19H6.99Zm-3.69 0h3.48v1.19H3.3Zm13.93-1.42h3.32v1.19h-3.32Zm-10.24 0h10.06v1.19H6.99Zm-3.69 0h3.48v1.19H3.3Zm13.93-1.41h3.32v1.19h-3.32Zm-10.24 0h10.06v1.19H6.99Zm-3.69 0h3.48v1.19H3.3Z"/></svg>
